packages/opendesign/src/icons/svgs/fill/refresh.svg

<?xml version="1.0" encoding="UTF-8"?>
<svg width="24px" height="24px" viewBox="0 0 24 24" version="1.1" xmlns="http://www.w3.org/2000/svg" xmlns:xlink="http://www.w3.org/1999/xlink">
    <title>refresh</title>
    <g id="refresh" stroke="none" stroke-width="1" fill="none" fill-rule="evenodd">
        <path d="M12,2.25 C14.1964038,2.25 16.2727842,2.98151196 17.9484912,4.27347711 L19.1745793,2.81239384 C19.2278296,2.74893264 19.3224429,2.74065504 19.3859041,2.79390531 C19.4085896,2.81294066 19.4251329,2.83826502 19.4334495,2.86668701 L20.810388,7.5724211 C20.8336529,7.65192994 20.7880583,7.73524458 20.7085494,7.75850956 C20.6895425,7.76407115 20.6696224,7.76581393 20.6499385,7.76363735 L15.7765922,7.22475978 C15.6942514,7.21565482 15.634882,7.14152335 15.6439869,7.0591825 C15.6472417,7.02974816 15.6591362,7.0019358 15.6781715,6.97925035 L16.9833603,5.42372133 C15.5742533,4.35410098 13.8373821,3.75 12,3.75 C7.44365081,3.75 3.75,7.44365081 3.75,12 C3.75,16.5563492 7.44365081,20.25 12,20.25 C15.4120179,20.25 18.434271,18.1595612 19.6716043,15.0411554 C19.8243713,14.6561423 20.2603282,14.4678696 20.6453414,14.6206367 C21.0303545,14.7734037 21.2186272,15.2093606 21.0658602,15.5943738 C19.6036116,19.2796251 16.0320657,21.75 12,21.75 C6.61522369,21.75 2.25,17.3847763 2.25,12 C2.25,6.61522369 6.61522369,2.25 12,2.25 Z" id="path1" fill="#000000" fill-rule="nonzero"></path>
    </g>
</svg>

<!-- Generated by IcoMoon.io -->
<svg version="1.1" xmlns="http://www.w3.org/2000/svg" width="24" height="24" viewBox="0 0 24 24">
<title>refresh</title>
<path d="M12 2.25c2.196 0 4.273 0.732 5.948 2.023l1.226-1.461c0.053-0.063 0.148-0.072 0.211-0.018 0.023 0.019 0.039 0.044 0.048 0.073l1.377 4.706c0.023 0.079-0.022 0.163-0.102 0.186-0.019 0.006-0.039 0.007-0.059 0.005l-4.873-0.539c-0.082-0.009-0.142-0.083-0.133-0.166 0.003-0.029 0.015-0.057 0.034-0.080l1.305-1.556c-1.409-1.070-3.146-1.674-4.983-1.674-4.556 0-8.25 3.694-8.25 8.25s3.694 8.25 8.25 8.25c3.412 0 6.434-2.090 7.672-5.209 0.153-0.385 0.589-0.573 0.974-0.421s0.573 0.589 0.421 0.974c-1.462 3.685-5.034 6.156-9.066 6.156-5.385 0-9.75-4.365-9.75-9.75s4.365-9.75 9.75-9.75z"></path>
</svg>
